X: 31460
T: Paddy Taylor's
R: reel
M: 4/4
K: Amixolydian
BAeA BAeA|BAeA dBGA|B~e3 d2ed|B~G3 BcdB|
B~A3 fAeA|A2eA dBGA|B~e3 d2ed|B~G3 BcdB|
A2ce ~a3f|gfed ega2|A2ce ~g3d|B~G3 BcdB|
A2ce ~a3f|gfed ega2|~f3d ~e3 d|dBGA BedB|

